svgs/telegram.svg

<svg width="192" height="192" viewBox="0 0 192 192" fill="none" xmlns="http://www.w3.org/2000/svg">
<path d="M23.0735 88.1317C23.0735 88.1317 88.5306 61.3498 111.232 51.9197C119.934 48.1477 149.447 36.077 149.447 36.077C149.447 36.077 163.068 30.7962 161.933 43.6212C161.554 48.9021 158.527 67.3851 155.5 87.3771C150.96 115.668 146.041 146.598 146.041 146.598C146.041 146.598 145.285 155.274 138.853 156.783C132.42 158.292 121.826 151.502 119.934 149.993C118.421 148.861 91.5568 131.887 81.7197 123.589C79.0711 121.326 76.0443 116.799 82.0981 111.518C95.7191 99.0706 111.989 83.6049 121.826 73.7976C126.366 69.2711 130.907 58.7094 111.989 71.5344C85.1252 90.0175 58.6396 107.369 58.6396 107.369C58.6396 107.369 52.5858 111.141 41.2349 107.746C29.884 104.351 16.6413 99.8245 16.6413 99.8245C16.6413 99.8245 7.56062 94.1664 23.0735 88.1317V88.1317Z" stroke="black" stroke-width="12"/>
</svg>

<svg xmlns="http://www.w3.org/2000/svg" width="192" height="192" fill="none" xmlns:v="https://vecta.io/nano"><path d="M23.074 88.132l88.159-36.212c8.702-3.772 38.215-15.843 38.215-15.843s13.621-5.281 12.486 7.544c-.379 5.281-3.406 23.764-6.433 43.756l-9.459 59.221s-.756 8.676-7.188 10.185-17.027-5.281-18.919-6.79c-1.513-1.132-28.377-18.106-38.214-26.404-2.649-2.263-5.675-6.79.378-12.071 13.621-12.447 29.891-27.913 39.728-37.72 4.54-4.526 9.081-15.088-9.837-2.263L58.64 107.369s-6.054 3.772-17.405.377-24.594-7.921-24.594-7.921-9.081-5.658 6.432-11.693h0z" stroke="#000" stroke-width="12"/></svg>
